resources/skins.citizen.icons.badges/WikiApiary.svg

<svg xmlns="http://www.w3.org/2000/svg" viewBox="0 0 16.36 6.03223"><title>Asset 4</title><path d="M0,2.73H.26625L.85886,5.01084H.86622L1.50055,2.73H1.811l.64292,2.28088L3.04894,2.73h.24539L2.57657,5.33475H2.31646L1.65637,3.00357H1.649L.99259,5.33475H.72267Zm3.61947,0h.22944V3.098H3.61947Zm0,.72266h.22944V5.33475H3.61947ZM4.29428,2.73h.23067V4.36424l1.0429-.91162h.30673l-.8061.69691.85886,1.18522H5.64392l-.74475-1.0245-.36809.30919v.71531h-.2368Zm1.82446,0h.22944V3.098H6.11874Zm0,.72266h.22944V5.33475H6.11874ZM7.5972,2.73h.27729L8.8953,5.33475H8.62906L8.31128,4.525H7.12606l-.3141.80978H6.54572Zm-.39507,1.584H8.22785L7.72971,2.9778Zm1.887-.86132h.211V3.806h.00737a.70548.70548,0,0,1,.67113-.41225c.573,0,.84659.46378.84659.99628s-.27361.99627-.84659.99627a.67115.67115,0,0,1-.654-.40857V6.03165H9.08916Zm.88953.13865c-.50672,0-.66009.37544-.66009.80242,0,.39016.17177.80241.66009.80241.438,0,.61347-.41225.61347-.80241S10.41671,3.59127,9.97869,3.59127ZM11.18723,2.73h.22943V3.098h-.22943Zm0,.72266h.22943V5.33475h-.22943Zm.64905.57667c.02208-.4417.3325-.63188.76315-.63188.33128,0,.69322.10184.69322.60611v1a.12272.12272,0,0,0,.135.13865A.21732.21732,0,0,0,13.5,5.1274V5.32a.61339.61339,0,0,1-.14968.01473c-.23312,0-.26993-.13128-.26993-.32759H13.073a.71775.71775,0,0,1-.68095.3828c-.346,0-.63065-.17177-.63065-.5509,0-.52881.51409-.54721,1.00977-.6061.19018-.02209.2957-.04663.2957-.25521,0-.31041-.22208-.38648-.49078-.38648a.44756.44756,0,0,0-.50427.438Zm1.22693.27728h-.00736c-.02822.054-.13128.07239-.19263.08344-.39016.06993-.876.06625-.876.43433a.39141.39141,0,0,0,.413.36852l.0066-.00044a.60482.60482,0,0,0,.65641-.59015Zm.68832-.85395h.21226v.4417h.00736a.69567.69567,0,0,1,.71162-.46746V3.6563a.64906.64906,0,0,0-.70058.67481V5.33475h-.23066Zm.93861,0h.24538L15.549,5.05746l.58034-1.60484H16.36l-.81837,2.17046c-.13128.31778-.20735.40857-.49077.40857a.59627.59627,0,0,1-.17546-.0184V5.82062a.79266.79266,0,0,0,.157.0184c.2049,0,.24539-.12269.32882-.29569l.07975-.21594ZM.0319,0H.27729L.88217,1.5349,1.48582,0h.24539V1.75084H1.56435V.238L.96069,1.75084H.80364L.20367.238V1.75084H.0319ZM3.18145,1.11774a.602.602,0,1,1-1.19626,0,.60185.60185,0,1,1,1.19626,0Zm-1.04167,0a.48148.48148,0,0,0,.44415.53985.48148.48148,0,0,0,.44415-.53985A.48036.48036,0,0,0,2.58393.57912.48036.48036,0,0,0,2.13978,1.11774Zm1.26988-.627h.1546V.70426a.42942.42942,0,0,1,.40489-.2552c.35458,0,.46255.18649.46255.49077v.81469H4.28324V.96069c0-.21717-.07116-.38157-.32145-.38157a.39655.39655,0,0,0-.39753.4331v.73617h-.1546ZM4.73108,0h.15459V.24539H4.73108Zm0,.49078h.15459V1.75084H4.73108Zm.6969,0h.25643V.61347H5.428v.85886c0,.10061.01472.1595.12269.16686a1.19971,1.19971,0,0,0,.13251-.00736v.13251H5.54576c-.2049,0-.27606-.06871-.2736-.28465V.61347H5.05131V.49078h.22453V.10552h.15459Zm1.61219.627a.602.602,0,1,1-1.19626,0,.60185.60185,0,1,1,1.19626,0Zm-1.04167,0a.48148.48148,0,0,0,.44415.53985.48148.48148,0,0,0,.44416-.53985A.48037.48037,0,0,0,6.44265.57912.48037.48037,0,0,0,5.9985,1.11774Zm1.27234-.627h.14232V.78156A.46869.46869,0,0,1,7.89167.46869V.62328a.43558.43558,0,0,0-.47115.45275v.67481H7.27084Zm.81837.66868a.449.449,0,0,0,.41716.49813.38524.38524,0,0,0,.39752-.32391h.1546a.51712.51712,0,0,1-.55212.454c-.40244,0-.57053-.30919-.57053-.66991,0-.33373.16809-.66868.57053-.66868s.573.35458.557.7104ZM8.9088,1.0294A.42434.42434,0,0,0,8.50637.57911a.44994.44994,0,0,0-.41716.45029Zm1.476.72144h-.14233V1.50545a.50181.50181,0,0,1-.45151.27729c-.38526,0-.56807-.31164-.56807-.66991S9.40571.44415,9.791.44415a.4515.4515,0,0,1,.43924.27729V0h.1546Zm-.59875-.09325c.32882,0,.44415-.27728.44415-.53985S10.11488.57912,9.78606.57912c-.29446,0-.4147.27606-.4147.53862S9.4916,1.65759,9.78606,1.65759ZM11.36022,0h.1546V.72635a.45151.45151,0,0,1,.438-.27729c.38525,0,.56929.31164.56929.66868s-.184.66991-.56929.66991a.4736.4736,0,0,1-.45029-.27729v.24539h-.14233Zm.59752.57911c-.32759,0-.44292.27607-.44292.53863s.11533.53985.44292.53985c.29447,0,.41471-.27728.41471-.53985S12.25221.57912,11.95774.57911ZM12.6252.49078h.16441l.41716,1.07847L13.59571.49078h.15459L13.20186,1.9447c-.08834.21348-.13987.27483-.33373.27483a.39976.39976,0,0,1-.12269-.01227V2.07721a.53655.53655,0,0,0,.10551.01227c.13742,0,.16932-.081.22085-.19877l.054-.14478Z" style="fill:#fff"/></svg>

<svg xmlns="http://www.w3.org/2000/svg" viewBox="0 0 16.36 6.032">
	<title>
		Asset 4
	</title>
	<path fill="#fff" d="M0 2.73h.266L.86 5.01h.007l.635-2.28h.31l.643 2.28.595-2.28h.245l-.717 2.605h-.26l-.66-2.331H1.65l-.656 2.33h-.27zm3.62 0h.229v.368h-.23zm0 .723h.229v1.882h-.23zm.674-.723h.231v1.634l1.043-.911h.307l-.807.697.86 1.185h-.284L4.899 4.31l-.368.31v.715h-.237zm1.825 0h.23v.368h-.23zm0 .723h.23v1.882h-.23zm1.478-.723h.277l1.021 2.605H8.63l-.318-.81H7.126l-.314.81h-.266zm-.395 1.584h1.026L7.73 2.978zm1.887-.861H9.3v.353h.008a.705.705 0 01.67-.412c.574 0 .847.464.847.996s-.273.996-.846.996a.671.671 0 01-.654-.408v1.054h-.236zm.89.138c-.507 0-.66.376-.66.803 0 .39.171.802.66.802.438 0 .613-.412.613-.802s-.175-.803-.613-.803zm1.208-.861h.23v.368h-.23zm0 .723h.23v1.882h-.23zm.65.576c.021-.441.332-.632.762-.632.332 0 .694.102.694.607v1a.123.123 0 00.135.138.217.217 0 00.072-.015v.193a.613.613 0 01-.15.015c-.233 0-.27-.132-.27-.328h-.007a.718.718 0 01-.681.383c-.346 0-.63-.172-.63-.551 0-.529.513-.547 1.01-.606.19-.022.295-.047.295-.255 0-.31-.222-.387-.49-.387a.448.448 0 00-.505.438zm1.226.278h-.007c-.028.054-.131.072-.193.083-.39.07-.876.066-.876.434a.391.391 0 00.413.369h.007a.605.605 0 00.656-.59zm.689-.854h.212v.441h.007a.696.696 0 01.712-.467v.23a.65.65 0 00-.7.674v1.004h-.231zm.938 0h.246l.613 1.604.58-1.604h.231l-.818 2.17c-.132.318-.208.409-.491.409a.596.596 0 01-.176-.019v-.192a.793.793 0 00.157.018c.205 0 .246-.123.33-.296l.079-.216zM.032 0h.245l.605 1.535L1.486 0h.245v1.75h-.167V.239L.961 1.751H.804L.204.238v1.513H.032zm3.15 1.118a.602.602 0 11-1.197 0 .602.602 0 111.196 0zm-1.042 0a.481.481 0 00.444.54.481.481 0 00.444-.54.48.48 0 00-.444-.539.48.48 0 00-.444.539zM3.41.49h.154v.213A.43.43 0 013.97.45c.355 0 .463.187.463.49v.816h-.149V.96c0-.217-.07-.382-.321-.382a.397.397 0 00-.398.433v.736H3.41zM4.73 0h.155v.245H4.73zm0 .49h.155v1.26H4.73zm.697 0h.256v.123h-.256v.86c0 .1.015.159.123.166a1.2 1.2 0 00.132-.007v.132h-.137c-.205 0-.276-.068-.274-.284V.613h-.22V.491h.224V.106h.154zm1.612.628a.602.602 0 11-1.196 0 .602.602 0 111.196 0zM6 1.118a.481.481 0 00.444.54.481.481 0 00.444-.54.48.48 0 00-.444-.539.48.48 0 00-.444.539zM7.27.49h.142v.29a.469.469 0 01.48-.31v.154a.436.436 0 00-.471.453v.675h-.15zm.818.668a.449.449 0 00.417.499.385.385 0 00.398-.324h.154a.517.517 0 01-.552.454c-.402 0-.57-.31-.57-.67 0-.334.168-.669.57-.669s.573.355.557.71zm.82-.13a.424.424 0 00-.403-.45.45.45 0 00-.417.45zm1.476.722h-.143v-.246a.502.502 0 01-.451.278c-.385 0-.568-.312-.568-.67s.183-.669.568-.669a.452.452 0 01.44.277V0h.154zm-.599-.093c.329 0 .444-.278.444-.54s-.115-.539-.444-.539c-.294 0-.415.276-.415.539s.12.54.415.54zM11.36 0h.155v.726a.452.452 0 01.438-.277c.385 0 .57.312.57.669s-.185.67-.57.67a.474.474 0 01-.45-.278v.246h-.143zm.598.58c-.328 0-.443.275-.443.538s.115.54.443.54c.294 0 .414-.278.414-.54s-.12-.539-.414-.539zm.667-.09h.165l.417 1.08.389-1.08h.154l-.548 1.455c-.088.213-.14.275-.334.275a.4.4 0 01-.123-.013v-.13a.537.537 0 00.106.012c.137 0 .17-.08.22-.198l.055-.145z"/>
</svg>
